svgs/bbll.svg

<svg width="192" height="192" viewBox="0 0 192 192" fill="none" xmlns="http://www.w3.org/2000/svg">
<path d="M69.8136 82.2332C71.9622 80.2225 74.1794 79.3619 76.7966 78.3941M76.7966 78.3941C85.9284 75.0173 93.4486 76.2011 93.4486 76.2011C100.969 77.2064 109.026 86.2546 92.3743 95.8054C104.729 99.3242 104.729 107.367 97.2087 112.896C88.2814 119.46 77.5128 116.583 74.1108 114.907L76.7966 78.3941ZM21 82.2332C23.1486 80.2225 25.3659 79.3619 27.9831 78.3941M27.9831 78.3941C37.1148 75.0173 44.635 76.2011 44.635 76.2011C52.1553 77.2064 60.2127 86.2546 43.5607 95.8054C55.9154 99.3242 55.9154 107.367 48.3951 112.896C39.4679 119.46 28.6993 116.583 25.2973 114.907L27.9831 78.3941ZM122.695 76.5125L119.644 115.395M119.644 115.395L136.424 114.95M119.644 115.395L117.102 115.462M157.271 76.5125L154.22 115.395M154.22 115.395L171 114.95M154.22 115.395L151.678 115.462" stroke="black" stroke-width="10" stroke-linecap="round" stroke-linejoin="round"/>
</svg>

<svg xmlns="http://www.w3.org/2000/svg" width="192" height="192" fill="none"><path stroke="#000" stroke-linecap="round" stroke-linejoin="round" stroke-width="10" d="M69.814 82.233c2.148-2.01 4.365-2.871 6.983-3.839m0 0c9.131-3.377 16.652-2.193 16.652-2.193 7.52 1.005 15.577 10.054-1.075 19.604 12.355 3.52 12.355 11.562 4.835 17.091-8.928 6.564-19.696 3.687-23.098 2.011zM21 82.234c2.149-2.011 4.366-2.872 6.983-3.84m0 0c9.132-3.377 16.652-2.193 16.652-2.193 7.52 1.005 15.578 10.054-1.074 19.604 12.354 3.52 12.354 11.562 4.834 17.091-8.927 6.564-19.696 3.687-23.098 2.011zm94.712-1.882-3.051 38.883m0 0 16.78-.445m-16.78.445-2.542.067m40.169-38.95-3.051 38.883m0 0 16.78-.445m-16.78.445-2.542.067"/></svg>
